X:1
T:A minor                        William Billings, 1778
T:Isaac Watts, 1709 (Hymn 110, Book 2)                             66. 86. (S. M.)  
T:Maryland
T:Transcribed from The Singing Master's Assistant, 1778.
%%score [ 1 2 3 4 ]
L:1/8
Q:1/4=120
M:none
K:C
V:1 treble nm="Treble" snm="Tr."
V:2 treble nm="Counter" snm="C."
V:3 treble-8 nm="Tenor" snm="T."
V:4 bass nm="Bass" snm="B."
V:1
"^1.   And  must  this   body   die,  This   mortal  frame   de –  cay?     And  must these active limbs of mine  Lie  mol–dering  in    the     clay?" A4 | %1
 A2 c2 B2 A2 | ^G4 G4 | A2 c2 (BA) ^G2 | A8 | A4 ^G2 A2 | B2 c2 B2 A2 | G4 E4 | A2 ^G2 (Ac) (BG) | %9
 A8 |: z8 | %11
 z4"^3.  We would adore  his  grace below,  And sing  his  power  a  –  bove, ______     And    sing ________  his  power a – bove,  And  sing  his  power  a–bove.""^1.  And must  these  active limbs of mine lie moldering in  the    clay? ______     Lie      mol    –       –   dering   in   the   clay?   Lie moldering  in  the  clay?""^2.  Till    my  tri–um–phant spi–rit  comes  to  put  it    on   a  –   fresh, ______     To        put ________   it      on    a – fresh,   To   put   it   on   a   –   fresh.""^4.  Till  tunes of nobler  sound we raise  With  our  immortal  tongues, ______     With   our ________   immortal  tongues, With  our  immortal  tongues," e4 | %12
 d2 c2 B2 B2 | A2 c2 B2 c2 | B2 (AB) c2 d2 | (ed c2 B2) (cd) | (e>f ed c2) e2 | A3 B c2 B2 | %18
 A2 A2 ^G2 G2 | A8 :| %20
V:2
"^3.  These  lively  hopes  we  owe  To  Je  –  sus'    dy  –  ing    love;     We  would  adore   his   grace  below,  And  sing   his   power   a  –  bove.""^2. Corruption, earth and worms  Shall  but  re – fine    this   flesh,    Till   my  tri–um–phant  spirit comes  To   put     it         on     a  –   fresh." E4 | %1
 E2 E2 E2 E2 | E4 E4 | E2 E2 F2 E2 | E8 | E4 E2 E2 | E2 C2 F2 E2 | E4 E4 | (CD) (EF) E2 E2 | E8 |: %10
 z8 | z8 | z8 | %13
 z4"^3.  We    would   a – dore    his      grace   be –  low,  And      sing  his  power  a –  bove,               And  sing his power a– bove.""^4.  Till    tunes    of    no – bler      sound   we  raise   With    our  im– mor– tal  tongues,              With our immortal tongues.""^2.  Till    my    tri  -  um  - phant    spir - it  comes   To        put     it       on   a  - fresh,                To   put   it   on  a  -  fresh.""^1.  And  must  these  ac –  tive    limbs   of   mine   Lie       mol – dering  in  the  clay?                Lie  moldering in the  clay?" G4 | %14
 (GF) (EF) G2 A2 | G2 G2 (GF) (EF) | G2 (GF) E2 E2 | A6 G2 | F2 F2 E2 E2 | E8 :| %20
V:3
"^4.  Dear  Lord,  accept the praise  Of  these   our  hum–ble  songs,     Till  tunes  of  nobler  sound we raise  With  our  im–mor–tal    tongues." A4 | %1
 c2 e2 d2 c2 | B4 B4 | c2 e2 (dc) B2 | A8 | A4 B2 c2 | B2 A2 d2 c2 | B4 B4 | A2 B2 c2 B2 | A8 |: %10
 z8 | z8 | %12
 z4"^3.  We  would  adore  his    grace   be – low,   And  sing   his   power  a   –  bove,           And          sing _________   his    power   a     –    bove.""^1.  And  must  these  active  limbs  of  mine  Lie   mol–dering  in    the     clay?             lie           mol     –      –     dering  in         the        clay?""^2.  Till  my  tri-um-phant   spi-rit  comes      To     put     it     on     a  -     fresh,           To            put __________  it       on        a     -    fresh.""^4.  Till  tunes   of  no – bler   sound we raise   With   our  im–mor–tal    tongues,           With         our _________    im – mor  –  tal    tongues." e4 | %13
 e2 e2 e2 c2 | d2 c2 B2 (AB) | c2 e2 d2 c2 | B4 c4 | (e>f ed c2) e2 | (d2 c2) B4 | A8 :| %20
V:4
 [A,,A,]4 | [A,,A,]2 [A,,A,]2 [^G,,^G,]2 [A,,A,]2 | E,4 E,4 | [A,,A,]2 [A,,A,]2 D,2 E,2 | A,,8 | %5
 A,,4 E,2 [A,,A,]2 | E,2 F,2 D,2 A,,2 | E,4 E,4 | F,2 (E,D,) (C,D,) E,2 | A,,8 |: %10
 z4"^4.  Till  tunes  of  nobler  sound we raise  With  our  im–mor–tal    tongues. ________  Till    tunes   of     no   –  bler   sound   we  raise               With our im–mor–tal tongues.""^1.  And  must  these active limbs of mine  Lie  moldering  in   the    clay?_________   And  must  these  ac   –   tive  limbs  of  mine                  lie  moldering  in  the  clay?""^3.  We   would   adore   his   grace  below,  And sing  his  power  a  –  bove. _______    We   would   a   –  dore    his    grace   be – low,                And sing his power a –  bove.""^2.  Till    my  tri – um – phant spirit comes  To  put  it        on    a  -   fresh. ________   Till   my    tri   -  um  – phant  spir - it   comes                 To   put   it   on   a   -  fresh." E,4 | %11
 [A,,A,]2 [^G,,^G,]2 [A,,A,]2 [C,C]2 | [B,,B,]2 [A,,A,]2 [G,,G,]2 E,2 | [A,,A,]4 E,4 | %14
 G,2 A,2 (E,2 D,2 | C,2) C,2 [G,,G,]2 [A,,A,]2 | E,2 E,2 [A,,A,]2 [A,,A,]2 | [A,,A,]6 E,2 | %18
 F,2 D,2 E,2 E,2 | A,,8 :| %20

